svg/fluentui-system-icons/ic_fluent_fingerprint_48_filled.svg

<svg width="48" height="48" viewBox="0 0 48 48" fill="none" xmlns="http://www.w3.org/2000/svg">
<path d="M15.2479 9.90211C17.5684 8.56337 20.8453 7.884 24.2741 8.02123C27.6954 8.15816 31.0971 9.10178 33.6649 10.8192C34.3535 11.2798 35.2851 11.0949 35.7457 10.4063C36.2062 9.71767 36.0213 8.78609 35.3327 8.32553C32.2064 6.23455 28.2356 5.17738 24.3941 5.02363C20.5602 4.87019 16.6839 5.61025 13.7487 7.30353C13.0312 7.7175 12.785 8.63481 13.199 9.35238C13.613 10.07 14.5303 10.3161 15.2479 9.90211ZM25.7078 10.7948C24.8874 10.6796 24.129 11.2513 24.0138 12.0716C23.8986 12.892 24.4703 13.6505 25.2906 13.7656C30.981 14.5646 34.3605 17.7953 36.3949 21.111C38.4535 24.4661 39.0961 27.8624 39.2326 28.7347C39.3608 29.5531 40.1282 30.1127 40.9466 29.9846C41.7651 29.8564 42.3247 29.089 42.1965 28.2706C42.0317 27.2177 41.306 23.3789 38.952 19.5421C36.5737 15.666 32.4964 11.748 25.7078 10.7948ZM18.8296 21.2981C15.1701 24.2451 13.0086 30.622 16.9793 38.8488C17.3394 39.5948 17.0265 40.4916 16.2804 40.8517C15.5343 41.2118 14.6376 40.8989 14.2775 40.1528C9.83061 30.9394 11.9844 22.9588 16.948 18.9616C19.4037 16.984 22.5102 16.0363 25.6578 16.4876C28.8184 16.9407 31.8794 18.7824 34.2888 22.1212C34.7736 22.793 34.622 23.7306 33.9502 24.2154C33.2784 24.7001 32.3409 24.5485 31.8561 23.8768C29.8588 21.109 27.4837 19.7801 25.2321 19.4572C22.9674 19.1326 20.6854 19.8037 18.8296 21.2981ZM23.4776 40.8403C21.0048 35.7567 20.288 31.5083 20.7556 28.7362C20.9869 27.3651 21.4864 26.4629 22.0832 25.9342C22.6527 25.4295 23.456 25.1343 24.6085 25.2435C26.1602 25.3907 26.8477 25.8888 27.2656 26.4446C27.7673 27.1118 28.0491 28.0697 28.3714 29.5162C28.4108 29.6929 28.4502 29.8745 28.4906 30.0607C29.0789 32.77 29.8724 36.4252 33.5885 39.254C34.2476 39.7557 35.1888 39.6282 35.6905 38.969C36.1923 38.3098 36.0647 37.3687 35.4056 36.8669C32.5901 34.7236 32.0058 32.0699 31.4015 29.3247L31.401 29.3225C31.3675 29.1701 31.3337 29.0168 31.2996 28.8638C30.9919 27.4826 30.6084 25.8985 29.6635 24.6418C28.6348 23.2736 27.0947 22.4658 24.8916 22.2569C23.0379 22.0812 21.3743 22.5541 20.0936 23.6888C18.8401 24.7995 18.1059 26.4082 17.7974 28.2372C17.1853 31.8655 18.1641 36.7752 20.7798 42.1526C21.1422 42.8976 22.0399 43.2077 22.7849 42.8454C23.5298 42.483 23.84 41.5853 23.4776 40.8403ZM11.6081 10.9594C12.1676 11.5703 12.126 12.5191 11.5151 13.0787C9.68301 14.7568 8.54367 16.6187 8.19092 17.241C7.78238 17.9617 6.86696 18.2147 6.14628 17.8062C5.42559 17.3977 5.17255 16.4822 5.58109 15.7616C6.01175 15.0019 7.33266 12.8414 9.48881 10.8664C10.0997 10.3069 11.0485 10.3485 11.6081 10.9594ZM36.4743 28.4725C36.3209 27.6584 35.5366 27.1228 34.7225 27.2762C33.9084 27.4296 33.3728 28.2139 33.5262 29.028C34.0858 31.998 35.4589 34.4803 37.9619 36.0264C38.6667 36.4618 39.591 36.2433 40.0264 35.5385C40.4617 34.8337 40.2433 33.9094 39.5385 33.4741C37.9339 32.4829 36.922 30.8487 36.4743 28.4725ZM24.1432 28.5013C24.9688 28.4321 25.6941 29.0451 25.7634 29.8707C26.2157 35.262 28.9061 38.6679 29.6426 39.5061C30.1895 40.1283 30.1284 41.0761 29.5061 41.623C28.8839 42.1698 27.9361 42.1087 27.3892 41.4865C26.4247 40.389 23.3004 36.397 22.7739 30.1215C22.7046 29.2959 23.3177 28.5706 24.1432 28.5013ZM20.0943 14.2341C20.8543 13.9044 21.2032 13.0211 20.8736 12.2611C20.544 11.501 19.6606 11.1522 18.9006 11.4818C12.0357 14.4592 8.89121 19.5302 7.53264 24.0961C6.19021 28.6077 6.58453 32.6231 6.72699 33.7012C6.83551 34.5225 7.58926 35.1003 8.41055 34.9918C9.23184 34.8833 9.80966 34.1296 9.70114 33.3083C9.58488 32.4284 9.23637 28.8895 10.408 24.9517C11.5636 21.0682 14.1902 16.7948 20.0943 14.2341Z" fill="#212121"/>
</svg>

<svg xmlns="http://www.w3.org/2000/svg" width="48" height="48"><path d="M15.248 9.902c2.32-1.339 5.597-2.018 9.026-1.88 3.421.136 6.823 1.08 9.39 2.797a1.5 1.5 0 1 0 1.669-2.493c-3.127-2.091-7.097-3.149-10.939-3.302-3.834-.154-7.71.586-10.645 2.28a1.5 1.5 0 0 0 1.499 2.598Zm10.46.893a1.5 1.5 0 0 0-.417 2.97c5.69.8 9.07 4.03 11.104 7.346 2.058 3.355 2.701 6.751 2.838 7.624a1.5 1.5 0 0 0 2.964-.464c-.165-1.053-.891-4.892-3.245-8.729-2.378-3.876-6.456-7.794-13.244-8.747ZM18.83 21.298c-3.66 2.947-5.821 9.324-1.85 17.55a1.5 1.5 0 0 1-2.703 1.305c-4.446-9.214-2.293-17.194 2.671-21.191 2.456-1.978 5.562-2.926 8.71-2.474 3.16.453 6.221 2.294 8.63 5.633a1.5 1.5 0 0 1-2.432 1.756c-1.997-2.768-4.372-4.097-6.624-4.42-2.265-.324-4.547.347-6.402 1.841Zm4.648 19.542c-2.473-5.083-3.19-9.332-2.722-12.104.23-1.37.73-2.273 1.327-2.802.57-.505 1.373-.8 2.526-.69 1.551.147 2.239.645 2.657 1.2.501.668.783 1.626 1.105 3.072.04.177.08.359.12.545.588 2.709 1.381 6.364 5.098 9.193a1.5 1.5 0 0 0 1.817-2.387c-2.816-2.143-3.4-4.797-4.005-7.542v-.002l-.101-.46c-.308-1.38-.692-2.965-1.637-4.221-1.028-1.368-2.568-2.176-4.771-2.385-1.854-.176-3.518.297-4.798 1.432-1.254 1.11-1.988 2.72-2.297 4.548-.612 3.629.367 8.538 2.983 13.916a1.5 1.5 0 0 0 2.698-1.313Zm-11.87-29.88a1.5 1.5 0 0 1-.093 2.119 17.98 17.98 0 0 0-3.324 4.162 1.5 1.5 0 0 1-2.61-1.48c.43-.76 1.752-2.92 3.908-4.895a1.5 1.5 0 0 1 2.12.093Zm24.866 17.512a1.5 1.5 0 1 0-2.948.556c.56 2.97 1.933 5.452 4.436 6.998a1.5 1.5 0 0 0 1.576-2.552c-1.604-.991-2.616-2.625-3.064-5.001Zm-12.33.03a1.5 1.5 0 0 1 1.62 1.369c.452 5.391 3.142 8.797 3.879 9.635a1.5 1.5 0 1 1-2.254 1.98c-.964-1.097-4.089-5.089-4.615-11.364a1.5 1.5 0 0 1 1.37-1.62Zm-4.05-14.268a1.5 1.5 0 0 0-1.193-2.752C12.036 14.459 8.89 19.53 7.533 24.096c-1.343 4.512-.948 8.527-.806 9.605a1.5 1.5 0 0 0 2.974-.393c-.116-.88-.465-4.418.707-8.356 1.156-3.884 3.782-8.157 9.686-10.718Z"/></svg>
